X:240
T:Tune
S:YouTube via Michelle Franklin
Z:robin.beech@mcgill.ca
R:jig
M:4/4
L:1/8
K:Amin
A2a ged | e3 dcB | A2a ged | e3 dcB | A2a ged | e3 cde | fed e2A | BAG A3 ::
EAB c3 | BcB A3 | EAB c2e | dcB cBA | EAB c3 | BcB A3 | cBA BAG | EAA A3 ::
a2a ag^f | g2g g^fe | ^f2f fed | ecA A3 | a2a ag^f | g2g gab | age deg | a6 |
a2a ag^f | g2g g^fe | ^f2f fed | ecA A3 | c3 cAG | A3 AGF | edc edc | edc edc |]
